source/images/icons/icon-editorial/balai.svg

<?xml version="1.0" encoding="UTF-8"?>
<svg width="80px" height="80px" viewBox="0 0 80 80" version="1.1" xmlns="http://www.w3.org/2000/svg" xmlns:xlink="http://www.w3.org/1999/xlink">
    <!-- Generator: Sketch 55.2 (78181) - https://sketchapp.com -->
    <title>Illustrative Icons/Balai</title>
    <desc>Created with Sketch.</desc>
    <g id="Illustrative-Icons/Balai" stroke="none" stroke-width="1" fill="none" fill-rule="evenodd">
        <path d="M64.8450001,15.4879774 C64.194167,14.8373409 63.1391665,14.8373409 62.4883334,15.4879774 L41.1866667,36.7896441 C38.4083334,34.7063108 35.0583334,34.0913108 31.39,35.0146441 C29.4335164,35.517457 27.5819536,36.3639502 25.9216667,37.5146441 L8.45166667,50.6813108 C8.06890768,50.9710305 7.82965676,51.4117197 7.79518285,51.890524 C7.76070895,52.3693282 7.93436014,52.8397464 8.27166667,53.1813108 L27.0966667,72.1813108 C27.4084524,72.4994036 27.8345902,72.6794618 28.28,72.6813108 L28.3783334,72.6813108 C28.8562136,72.6529026 29.2988043,72.4203755 29.5933334,72.0429775 L43.0933334,54.7363108 L43.1283334,54.6913108 C44.2586402,53.0301753 45.0863777,51.182295 45.5733334,49.2329775 C46.5016667,45.4396441 45.805,41.9746441 43.565,39.1263108 L64.8450001,17.8446441 C65.4956366,17.193811 65.4956366,16.1388105 64.8450001,15.4879774 Z M28.13,68.4996442 L25.8866667,66.2363108 L30.6666667,61.4496441 C31.0999277,61.0311867 31.2736877,60.4115143 31.121162,59.8287986 C30.9686362,59.2460829 30.5135613,58.791008 29.9308456,58.6384822 C29.3481298,58.4859565 28.7284575,58.6597165 28.31,59.0929775 L23.5383334,63.8646442 L21.1933334,61.4996441 L25.955,56.7379775 C26.388261,56.31952 26.562021,55.6998477 26.4094953,55.1171319 C26.2569696,54.5344162 25.8018946,54.0793413 25.2191789,53.9268155 C24.6364632,53.7742898 24.0167908,53.9480498 23.5983334,54.3813108 L18.8483333,59.1313108 L16.5,56.7613108 L21.24,52.0213108 C21.8555389,51.3649031 21.8388703,50.3384028 21.2023438,49.7023264 C20.5658173,49.0662501 19.5393054,49.0503077 18.8833333,49.6663108 L14.1533333,54.3946441 L11.9866667,52.2046441 L25.4266667,42.0729775 L38.4783334,55.2396441 L28.13,68.4996442 Z M40.5333334,52.5829775 L28.115,40.0546441 C29.372821,39.2380664 30.7529782,38.6276014 32.2033334,38.2463108 C35.3483334,37.4546441 38.0366667,38.1646441 40.2166667,40.3563108 C45.0833334,45.2663108 41.2383334,51.5329775 40.5333334,52.5829775 Z M25.3333334,26.6663108 C26.2538079,26.6663108 27,25.9201187 27,24.9996441 C27,24.0791695 26.2538079,23.3329774 25.3333334,23.3329774 C24.4128588,23.3329774 23.6666667,24.0791695 23.6666667,24.9996441 C23.6666667,25.9201187 24.4128588,26.6663108 25.3333334,26.6663108 Z M8.66666667,43.3329775 C9.58714125,43.3329775 10.3333333,42.5867854 10.3333333,41.6663108 C10.3333333,40.7458362 9.58714125,39.9996441 8.66666667,39.9996441 C7.74619208,39.9996441 7,40.7458362 7,41.6663108 C7,42.5867854 7.74619208,43.3329775 8.66666667,43.3329775 Z M48.6666667,63.3329775 C49.5871413,63.3329775 50.3333334,62.5867854 50.3333334,61.6663108 C50.3333334,60.7458362 49.5871413,59.9996441 48.6666667,59.9996441 C47.7461921,59.9996441 47,60.7458362 47,61.6663108 C47,62.5867854 47.7461921,63.3329775 48.6666667,63.3329775 Z" id="Shape-color" fill="#ADB5BD"></path>
    </g>
</svg>

<svg width="80" height="80">
    <title>
        Illustrative Icons/Balai
    </title>
    <path d="M64.845 15.488a1.667 1.667 0 0 0-2.357 0L41.187 36.79c-2.779-2.084-6.129-2.699-9.797-1.775a17.05 17.05 0 0 0-5.468 2.5L8.452 50.68a1.667 1.667 0 0 0-.18 2.5l18.825 19c.311.318.738.498 1.183.5h.098c.478-.028.92-.26 1.215-.638l13.5-17.307.035-.045a17.047 17.047 0 0 0 2.445-5.458c.929-3.793.232-7.258-2.008-10.107l21.28-21.281c.65-.651.65-1.706 0-2.357zM28.13 68.5l-2.243-2.264 4.78-4.786a1.667 1.667 0 1 0-2.357-2.357l-4.772 4.772-2.345-2.365 4.762-4.762a1.667 1.667 0 1 0-2.357-2.357l-4.75 4.75-2.348-2.37 4.74-4.74a1.667 1.667 0 0 0-2.357-2.355l-4.73 4.729-2.166-2.19 13.44-10.132L38.478 55.24 28.13 68.5zm12.403-15.917L28.115 40.055a14.085 14.085 0 0 1 4.088-1.809c3.145-.791 5.834-.081 8.014 2.11 4.866 4.91 1.021 11.177.316 12.227zm-15.2-25.917a1.667 1.667 0 1 0 0-3.333 1.667 1.667 0 0 0 0 3.333zM8.667 43.333a1.667 1.667 0 1 0 0-3.333 1.667 1.667 0 0 0 0 3.333zm40 20a1.667 1.667 0 1 0 0-3.333 1.667 1.667 0 0 0 0 3.333z" fill="#ADB5BD" fill-rule="evenodd"/>
</svg>
